preferences/22/preferences-system-network-ntp.svg

<svg width="22" height="22" version="1.1" viewBox="0 0 22 22" xmlns="http://www.w3.org/2000/svg" xmlns:xlink="http://www.w3.org/1999/xlink">
<defs>
<linearGradient id="linearGradient3403" x1="6.9492" x2="11.215" y1="4.5549" y2="59.052" gradientUnits="userSpaceOnUse">
<stop style="stop-color:#32373c" offset="0"/>
<stop style="stop-color:#1a1a1a" offset=".36805"/>
<stop style="stop-color:#31363b" offset="1"/>
</linearGradient>
<linearGradient id="linearGradient20558" x1="25.802" x2="25.111" y1="20.374" y2="58.913" gradientUnits="userSpaceOnUse">
<stop style="stop-color:#3d3d3d" offset="0"/>
<stop offset=".61772"/>
<stop style="stop-color:#3d3d3d" offset="1"/>
</linearGradient>
<linearGradient id="linearGradient4557" x1="43.5" x2="44.142" y1="64.012" y2=".30621" gradientTransform="translate(.36068 -.13017)" gradientUnits="userSpaceOnUse">
<stop style="stop-color:#141618" offset="0"/>
<stop style="stop-color:#686868" offset=".51821"/>
<stop style="stop-color:#31363b" offset="1"/>
</linearGradient>
<linearGradient id="linearGradient919" x1="7.4006" x2="33.063" y1="41.743" y2="7.1074" gradientTransform="matrix(.42799 0 0 .42685 .67439 .73145)" gradientUnits="userSpaceOnUse">
<stop style="stop-opacity:.99608" offset="0"/>
<stop style="stop-color:#353a3f;stop-opacity:.99608" offset="1"/>
</linearGradient>
<linearGradient id="b" x1="32" x2="32" y1="30" y2="2" gradientUnits="userSpaceOnUse">
<stop stop-color="#197cf1" offset="0"/>
<stop stop-color="#20bcfa" offset="1"/>
</linearGradient>
<linearGradient id="c" x2="0" y1="30" y2="2" gradientUnits="userSpaceOnUse">
<stop stop-color="#54d883" offset="0"/>
<stop stop-color="#abf9c7" offset="1"/>
</linearGradient>
<linearGradient id="d" x1="15" x2="29" y1="7" y2="21" gradientTransform="translate(0,-1)" gradientUnits="userSpaceOnUse" xlink:href="#a"/>
<linearGradient id="a" x1="15" x2="29" y1="7" y2="21" gradientTransform="translate(20,6)" gradientUnits="userSpaceOnUse">
<stop stop-color="#292c2f" offset="0"/>
<stop stop-opacity="0" offset="1"/>
</linearGradient>
<linearGradient id="e" x1="14" x2="14" y1="17" y2="6" gradientUnits="userSpaceOnUse">
<stop stop-color="#2a2c2f" offset="0"/>
<stop stop-color="#424649" offset="1"/>
</linearGradient>
<linearGradient id="f" x1="15.5" x2="21.248" y1="10.5" y2="16.248" gradientTransform="rotate(225 16.639 13.75)" gradientUnits="userSpaceOnUse">
<stop stop-color="#c0392b" offset="0"/>
<stop stop-color="#e74c3c" offset="1"/>
</linearGradient>
<linearGradient id="g" x1="8" x2="20" y1="10" y2="22" gradientTransform="translate(0,-1)" gradientUnits="userSpaceOnUse" xlink:href="#a"/>
</defs>
<rect x="2.0281" y="2.0199" width="18.012" height="18.232" ry="0" style="fill-rule:evenodd;fill:url(#linearGradient919)"/>
<g transform="matrix(.6497 0 0 .64796 1.3014 .49256)">
<path d="m30 16a14 14 0 0 1-14 14 14 14 0 0 1-14-14 14 14 0 0 1 14-14 14 14 0 0 1 14 14z" fill="url(#b)" style="fill:url(#b)"/>
<path d="m12.463 2.463a14 14 0 0 0-5.463 2.832v0.705h2l1-1v2l1 1-1 2h-2l0.5 0.5-0.5 0.5v2l-2 1v1l3 1 2-1-1 2h-2l-1 1-2 1v1l4-1 1-1 2 1 2-1h4l1-2h-2l2-2v-2l-1-1-1 1h-1l1-2-1-1-1-2-1-1-1-3zm-6.463 3.757a14 14 0 0 0-3.777 7.37l1.777-0.59 1-2v-3l1-1zm22.303 3.127-3.303 1.653-1 3-3 3-2 1v2l-2 1-1 1h-2l-1-1h-1l1 4h-2l-1-1h-2l-2 1 0.742 1.486a14 14 0 0 0 9.258 3.514 14 14 0 0 0 14-14 14 14 0 0 0-1.697-6.652z" fill="url(#c)" style="fill:url(#c)"/>
<path d="m15 6h1l14 14-5 6.707-9.854-9.853-0.146-0.354z" fill="url(#d)" opacity=".2" style="fill:url(#d)"/>
<path d="m15 6v10.5a0.5 0.5 0 0 0 0.5 0.5h7.5v-1h-7v-10z" fill="url(#e)" style="fill:url(#e)"/>
<path d="m7.722 9.429 7.424 7.425 0.708-0.708-7.425-7.424z" fill="url(#f)" style="fill:url(#f)"/>
<path d="m15.854 16.146-0.708 0.708 9.5 9.5 0.708-0.708z" fill="url(#g)" opacity=".2" style="fill:url(#g)"/>
<path d="m16 16.5a0.5 0.5 0 0 1-0.5 0.5 0.5 0.5 0 0 1-0.5-0.5 0.5 0.5 0 0 1 0.5-0.5 0.5 0.5 0 0 1 0.5 0.5z" fill="#232629"/>
<path d="M 29.979,15.414 A 14,14 0 0 1 16,29 14,14 0 0 1 2.021,15.586 14,14 0 0 0 2,16 14,14 0 0 0 16,30 14,14 0 0 0 30,16 14,14 0 0 0 29.979,15.414 Z" fill="#292c2f" opacity=".2"/>
</g>
<path transform="matrix(.3218 0 0 .32094 .71707 .74207)" d="m4.7043 3.9815-0.012938 56.82h53.904l1.0222-2.8664s-23.875 0.76639-32.844-4.1404c-10.516-5.7529-15.372-49.697-15.372-49.697z" style="fill:url(#linearGradient3403);mix-blend-mode:normal;stroke-linejoin:round;stroke-width:1.1624;stroke:url(#linearGradient20558)"/>
<rect transform="matrix(.30146 0 0 .30004 1.2577 1.3906)" x="1.0324" y=".59551" width="62.567" height="62.867" rx="5.803" ry="6.2447" style="fill:none;stroke-linejoin:round;stroke-miterlimit:7.8;stroke-opacity:.99515;stroke-width:3.7137;stroke:url(#linearGradient4557)"/>
</svg>

<?xml version="1.0" encoding="UTF-8" standalone="no"?>
<!-- Created with Inkscape (http://www.inkscape.org/) -->

<svg
   width="22"
   height="22"
   version="1.1"
   viewBox="0 0 22 22"
   id="svg22"
   sodipodi:docname="preferences-system-network-ntp.svg"
   inkscape:version="1.1.2 (0a00cf5339, 2022-02-04)"
   xmlns:inkscape="http://www.inkscape.org/namespaces/inkscape"
   xmlns:sodipodi="http://sodipodi.sourceforge.net/DTD/sodipodi-0.dtd"
   xmlns:xlink="http://www.w3.org/1999/xlink"
   xmlns="http://www.w3.org/2000/svg"
   xmlns:svg="http://www.w3.org/2000/svg">
  <sodipodi:namedview
     id="namedview24"
     pagecolor="#ffffff"
     bordercolor="#666666"
     borderopacity="1.0"
     inkscape:showpageshadow="2"
     inkscape:pageopacity="0.0"
     inkscape:pagecheckerboard="0"
     inkscape:deskcolor="#d1d1d1"
     showgrid="false"
     inkscape:zoom="25.62"
     inkscape:cx="11.202186"
     inkscape:cy="16.900859"
     inkscape:window-width="3440"
     inkscape:window-height="1356"
     inkscape:window-x="0"
     inkscape:window-y="0"
     inkscape:window-maximized="1"
     inkscape:current-layer="svg22"
     inkscape:pageshadow="2" />
  <defs
     id="defs12">
    <linearGradient
       inkscape:collect="always"
       id="linearGradient917">
      <stop
         style="stop-color:#000000;stop-opacity:0.99607843"
         offset="0"
         id="stop913" />
      <stop
         style="stop-color:#353a3f;stop-opacity:0.99607843"
         offset="1"
         id="stop915" />
    </linearGradient>
    <linearGradient
       id="linearGradient1005-3-3"
       x1="5.2535"
       x2="9.3823996"
       y1="15.383"
       y2="2.9421"
       gradientTransform="matrix(0.99999,0,0,0.99999,1.632,-0.61743)"
       gradientUnits="userSpaceOnUse">
      <stop
         stop-color="#fa8200"
         offset="0"
         id="stop2" />
      <stop
         stop-color="#ff9600"
         offset=".36953"
         id="stop4" />
      <stop
         stop-color="#ffb400"
         offset="1"
         id="stop6" />
    </linearGradient>
    <filter
       id="filter4014"
       x="-0.062499933"
       y="-0.057692993"
       width="1.1249999"
       height="1.115386"
       color-interpolation-filters="sRGB">
      <feGaussianBlur
         stdDeviation="1.093751"
         id="feGaussianBlur9" />
    </filter>
    <linearGradient
       inkscape:collect="always"
       xlink:href="#linearGradient3487"
       id="linearGradient3403"
       gradientUnits="userSpaceOnUse"
       x1="6.9491749"
       y1="4.5549412"
       x2="11.215498"
       y2="59.052471" />
    <linearGradient
       id="linearGradient3487">
      <stop
         style="stop-color:#32373c;stop-opacity:1"
         offset="0"
         id="stop3481" />
      <stop
         id="stop3483"
         offset="0.36804965"
         style="stop-color:#1a1a1a;stop-opacity:1" />
      <stop
         style="stop-color:#31363b;stop-opacity:1"
         offset="1"
         id="stop3485" />
    </linearGradient>
    <linearGradient
       inkscape:collect="always"
       xlink:href="#linearGradient20604"
       id="linearGradient20558"
       gradientUnits="userSpaceOnUse"
       x1="25.802212"
       y1="20.373846"
       x2="25.111048"
       y2="58.912758" />
    <linearGradient
       id="linearGradient20604">
      <stop
         id="stop20598"
         offset="0"
         style="stop-color:#3d3d3d;stop-opacity:1" />
      <stop
         style="stop-color:#000000;stop-opacity:1"
         offset="0.61772454"
         id="stop20600" />
      <stop
         id="stop20602"
         offset="1"
         style="stop-color:#3d3d3d;stop-opacity:1" />
    </linearGradient>
    <filter
       inkscape:collect="always"
       style="color-interpolation-filters:sRGB"
       id="filter20720"
       x="-0.017024755"
       y="-0.016457183"
       width="1.0340491"
       height="1.0329144">
      <feGaussianBlur
         inkscape:collect="always"
         stdDeviation="0.14745661"
         id="feGaussianBlur20722" />
    </filter>
    <linearGradient
       gradientTransform="translate(0.36067797,-0.13016949)"
       xlink:href="#linearGradient4555"
       id="linearGradient4557"
       x1="43.499737"
       y1="64.011795"
       x2="44.141731"
       y2="0.30621234"
       gradientUnits="userSpaceOnUse" />
    <linearGradient
       id="linearGradient4555">
      <stop
         style="stop-color:#141618;stop-opacity:1"
         offset="0"
         id="stop4551" />
      <stop
         id="stop4559"
         offset="0.51820582"
         style="stop-color:#686868;stop-opacity:1" />
      <stop
         style="stop-color:#31363b;stop-opacity:1"
         offset="1"
         id="stop4553" />
    </linearGradient>
    <filter
       style="color-interpolation-filters:sRGB"
       id="filter4601"
       x="-0.030244762"
       width="1.0604895"
       y="-0.030100647"
       height="1.0602013">
      <feGaussianBlur
         stdDeviation="0.014790289"
         id="feGaussianBlur4603" />
    </filter>
    <linearGradient
       inkscape:collect="always"
       xlink:href="#linearGradient917"
       id="linearGradient919"
       x1="7.400631"
       y1="41.743092"
       x2="33.063145"
       y2="7.1074457"
       gradientUnits="userSpaceOnUse"
       gradientTransform="matrix(0.65875771,0,0,0.65875771,0.25841203,0.21589031)" />
    <linearGradient
       id="b"
       gradientUnits="userSpaceOnUse"
       x1="32"
       x2="32"
       y1="30"
       y2="2">
      <stop
         offset="0"
         stop-color="#197cf1"
         id="stop9" />
      <stop
         offset="1"
         stop-color="#20bcfa"
         id="stop11" />
    </linearGradient>
    <linearGradient
       id="c"
       gradientUnits="userSpaceOnUse"
       x2="0"
       y1="30"
       y2="2">
      <stop
         offset="0"
         stop-color="#54d883"
         id="stop14" />
      <stop
         offset="1"
         stop-color="#abf9c7"
         id="stop16" />
    </linearGradient>
    <linearGradient
       id="d"
       gradientTransform="translate(0,-1)"
       gradientUnits="userSpaceOnUse"
       x1="15"
       x2="29"
       xlink:href="#a"
       y1="7"
       y2="21" />
    <linearGradient
       id="a"
       gradientTransform="translate(20,6)"
       gradientUnits="userSpaceOnUse"
       x1="15"
       x2="29"
       y1="7"
       y2="21">
      <stop
         offset="0"
         stop-color="#292c2f"
         id="stop19" />
      <stop
         offset="1"
         stop-opacity="0"
         id="stop21" />
    </linearGradient>
    <linearGradient
       id="e"
       gradientUnits="userSpaceOnUse"
       x1="14"
       x2="14"
       y1="17"
       y2="6">
      <stop
         offset="0"
         stop-color="#2a2c2f"
         id="stop24" />
      <stop
         offset="1"
         stop-color="#424649"
         id="stop26" />
    </linearGradient>
    <linearGradient
       id="f"
       gradientTransform="rotate(-135,16.639,13.75)"
       gradientUnits="userSpaceOnUse"
       x1="15.5"
       x2="21.247999"
       y1="10.5"
       y2="16.247999">
      <stop
         offset="0"
         stop-color="#c0392b"
         id="stop2-6" />
      <stop
         offset="1"
         stop-color="#e74c3c"
         id="stop4-0" />
    </linearGradient>
    <linearGradient
       id="g"
       gradientTransform="translate(0,-1)"
       gradientUnits="userSpaceOnUse"
       x1="8"
       x2="20"
       xlink:href="#a"
       y1="10"
       y2="22" />
  </defs>
  <rect
     style="display:inline;fill:url(#linearGradient919);fill-opacity:1;fill-rule:evenodd;stroke:none;stroke-width:0.611209;stroke-linejoin:round;stroke-miterlimit:7.8"
     id="rect1192"
     width="27.723557"
     height="28.13693"
     x="2.3420036"
     y="2.2043438"
     ry="0"
     inkscape:label="arriere" />
  <g
     id="g874"
     transform="translate(1.2234844,-0.15278289)">
    <path
       d="M 30,16 A 14,14 0 0 1 16,30 14,14 0 0 1 2,16 14,14 0 0 1 16,2 14,14 0 0 1 30,16 Z"
       fill="url(#b)"
       id="path29"
       style="fill:url(#b)" />
    <path
       d="M 12.463,2.463 A 14,14 0 0 0 7,5.295 V 6 h 2 l 1,-1 v 2 l 1,1 -1,2 H 8 L 8.5,10.5 8,11 v 2 l -2,1 v 1 l 3,1 2,-1 -1,2 H 8 l -1,1 -2,1 v 1 l 4,-1 1,-1 2,1 2,-1 h 4 l 1,-2 h -2 l 2,-2 v -2 l -1,-1 -1,1 H 16 L 17,10 16,9 15,7 14,6 13,3 Z M 6,6.22 A 14,14 0 0 0 2.223,13.59 L 4,13 5,11 V 8 L 6,7 Z M 28.303,9.347 25,11 l -1,3 -3,3 -2,1 v 2 l -2,1 -1,1 h -2 l -1,-1 h -1 l 1,4 H 11 L 10,24 H 8 l -2,1 0.742,1.486 A 14,14 0 0 0 16,30 14,14 0 0 0 30,16 14,14 0 0 0 28.303,9.348 Z"
       fill="url(#c)"
       id="path31"
       style="fill:url(#c)" />
    <path
       d="m 15,6 h 1 L 30,20 25,26.707 15.146,16.854 15,16.5 Z"
       fill="url(#d)"
       opacity="0.2"
       id="path33"
       style="fill:url(#d)" />
    <path
       d="M 15,6 V 16.5 A 0.5,0.5 0 0 0 15.5,17 H 23 V 16 H 16 V 6 Z"
       fill="url(#e)"
       id="path35"
       style="fill:url(#e)" />
    <path
       d="m 7.722,9.429 7.424,7.425 0.708,-0.708 -7.425,-7.424 z"
       fill="url(#f)"
       id="path37"
       style="fill:url(#f)" />
    <path
       d="m 15.854,16.146 -0.708,0.708 9.5,9.5 0.708,-0.708 z"
       fill="url(#g)"
       opacity="0.2"
       id="path39"
       style="fill:url(#g)" />
    <path
       d="M 16,16.5 A 0.5,0.5 0 0 1 15.5,17 0.5,0.5 0 0 1 15,16.5 0.5,0.5 0 0 1 15.5,16 0.5,0.5 0 0 1 16,16.5 Z"
       fill="#232629"
       id="path41" />
    <path
       d="M 29.979,15.414 A 14,14 0 0 1 16,29 14,14 0 0 1 2.021,15.586 14,14 0 0 0 2,16 14,14 0 0 0 16,30 14,14 0 0 0 30,16 14,14 0 0 0 29.979,15.414 Z"
       fill="#292c2f"
       opacity="0.2"
       id="path43" />
  </g>
  <path
     style="display:inline;mix-blend-mode:normal;fill:url(#linearGradient3403);fill-opacity:1;stroke:url(#linearGradient20558);stroke-width:1.16242;stroke-linecap:butt;stroke-linejoin:round;stroke-miterlimit:4;stroke-dasharray:none;stroke-opacity:1;filter:url(#filter20720)"
     d="M 4.7043071,3.9814882 4.6913695,60.80196 H 58.59546 l 1.022155,-2.866369 c 0,0 -23.87537,0.766388 -32.844441,-4.140386 C 16.257548,48.042344 11.401114,4.0978197 11.401114,4.0978197 Z"
     id="path1686"
     sodipodi:nodetypes="ccccscc"
     transform="matrix(0.49530655,0,0,0.49530655,0.32409325,0.23228439)"
     inkscape:label="folder" />
  <rect
     style="display:inline;fill:none;fill-opacity:1;stroke:url(#linearGradient4557);stroke-width:3.71366;stroke-linejoin:round;stroke-miterlimit:7.8;stroke-dasharray:none;stroke-opacity:0.995146;filter:url(#filter4601)"
     id="rect4539"
     width="62.567089"
     height="62.866646"
     x="1.0323594"
     y="0.59551275"
     ry="6.2447233"
     rx="5.8029528"
     transform="matrix(0.46399463,0,0,0.4630489,1.1562887,1.2331482)"
     inkscape:label="contour" />
</svg>
